X: 32625
T: Pleasant Beggar, The
R: reel
M: 4/4
K: Dmajor
d3d cdec|dfed cAAF|G3A B2 AG|FGAG FDD2|
d3d cded|dfed cdef|g2ag fded|1 cdAG FDDA:|2 cdAG FDDE||
FEFA d3e|fded cdAF|G3A B3d|gfed cdeg|
fded cdfd|edcd AFED|B3c d2 AG|1 FGAG FDDE:|2 FGAG FDD2||

